www/assets/icons/route.svg

<svg xmlns="http://www.w3.org/2000/svg" width="24" height="24" viewBox="0 0 24 24" fill='currentColor'><path d="M19 15.18V7c0-2.21-1.79-4-4-4s-4 1.79-4 4v10c0 1.1-.9 2-2 2s-2-.9-2-2V8.82C8.16 8.4 9 7.3 9 6c0-1.66-1.34-3-3-3S3 4.34 3 6c0 1.3.84 2.4 2 2.82V17c0 2.21 1.79 4 4 4s4-1.79 4-4V7c0-1.1.9-2 2-2s2 .9 2 2v8.18A2.996 2.996 0 0 0 18 21c1.66 0 3-1.34 3-3 0-1.3-.84-2.4-2-2.82"/></svg>

<svg width="24" height="24" viewBox="0 0 24 24" xmlns="http://www.w3.org/2000/svg" fill='currentColor'><path d="M19 15.18V7C19 4.79 17.21 3 15 3C12.79 3 11 4.79 11 7V17C11 18.1 10.1 19 9 19C7.9 19 7 18.1 7 17V8.82C8.16 8.4 9 7.3 9 6C9 4.34 7.66 3 6 3C4.34 3 3 4.34 3 6C3 7.3 3.84 8.4 5 8.82V17C5 19.21 6.79 21 9 21C11.21 21 13 19.21 13 17V7C13 5.9 13.9 5 15 5C16.1 5 17 5.9 17 7V15.18C15.84 15.59 15 16.69 15 18C15 19.66 16.34 21 18 21C19.66 21 21 19.66 21 18C21 16.7 20.16 15.6 19 15.18Z"/></svg>
